!!!OTL: STEH ICH IM FELD
!!!ARE: Europa, Mitteleuropa, Deutschland
!!!SCT: E1328
!!!YEM: Copyright 1995, estate of Helmut Schaffrath.
**kern
*ICvox
*Ivox
*M2/4
*k[f#]
*G:
=1
{4g
8f#
8a
=2
4g
4r}
=3
{4b
8a
8cc
=4
4b
4r}
=5
{8a
8g
8f#
8g
=6
8a
8b
4a}
=7
{4e
8a
8g
=8
8f#
8e
4d}
=9
{4cc
8b
8a
=10
8g
8b
4a}
=11
{8dd
8cc
8b
8a
=12
8g
8b
4a}
=13
{4b
8a
8b
=14
4cc
8ee
8r}
=15
{8dd
8b
8cc
8a
=16
4g
4r}
==
!!!AGN: Staende -, Soldaten -, Kriegs - Lied
!!!ONB: ESAC (Essen Associative Code) Database: ERK3
!!!AMT: simple duple
!!!AIN: vox
!!!EED: Helmut Schaffrath
!!!EEV: 1.0
*-
